src/images/facebook.svg

<svg fill="none" height="26" viewBox="0 0 26 26" width="26" xmlns="http://www.w3.org/2000/svg"><path d="m25.5 13c0-6.9043-5.5957-12.5-12.5-12.5s-12.5 5.5957-12.5 12.5c0 6.2402 4.57031 11.4111 10.5469 12.3486v-8.7353h-3.17385v-3.6133h3.17385v-2.7539c0-3.13233 1.8652-4.86329 4.7217-4.86329 1.3671 0 2.7978.24414 2.7978.24414v3.07617h-1.5771c-1.5528 0-2.0362.96436-2.0362 1.95308v2.3438h3.4668l-.5542 3.6133h-2.9126v8.7353c5.9766-.9375 10.5469-6.1084 10.5469-12.3486z" fill="#fff"/></svg>

<svg width="26" height="26" viewBox="0 0 26 26" fill="none" xmlns="http://www.w3.org/2000/svg">
<path d="M25.5 13C25.5 6.0957 19.9043 0.5 13 0.5C6.0957 0.5 0.5 6.0957 0.5 13C0.5 19.2402 5.07031 24.4111 11.0469 25.3486V16.6133H7.87305V13H11.0469V10.2461C11.0469 7.11377 12.9121 5.38281 15.7686 5.38281C17.1357 5.38281 18.5664 5.62695 18.5664 5.62695V8.70312H16.9893C15.4365 8.70312 14.9531 9.66748 14.9531 10.6562V13H18.4199L17.8657 16.6133H14.9531V25.3486C20.9297 24.4111 25.5 19.2402 25.5 13Z" fill="white"/>
</svg>
